Yaru++/emotes/16/face-heart-broken.svg

<svg height="16" width="16" xmlns="http://www.w3.org/2000/svg"><g stroke-width="1.142857"><path clip-rule="evenodd" d="m11.692229 2.1824126c2.379314 0 4.307771 1.9222857 4.307771 4.2936571h-.000457c0 1.2340343-.522857 2.3457257-1.359314 3.1287772h.0024l-4.94032 4.6031431-.8415319-2.145943 2.1635659-3.9548801-1.837863.1628571 1.326091-2.9313029-1.9774967-.46528v-1.3179085c.7865147-.8445943 1.9098397-1.37312 3.1571547-1.37312zm-4.8843433.7969371c-.7049143-.5017371-1.5679428-.7969371-2.5001943-.7969371-2.3792343 0-4.3076914 1.9222857-4.3076914 4.2936571 0 1.23392.5231429 2.3456114 1.35944 3.1287772h-.00114l5.6196086 5.3949141.92904-1.541828-.6979315-1.581943 1.3725943-2.8615089-1.7215657-.2791771 1.0469029-2.1635771-1.7448229-.4885486z" fill="#f22c42" fill-rule="evenodd"/><path d="m4.3080357 2.1830361c-2.3792343 0-4.3080357 1.9210393-4.3080357 4.2924108 0 .096437.022727.1864042.029018.28125.1522773-2.233545 1.9994243-4.0022322 4.2790179-4.0022322.8881832 0 1.7094444.2729154 2.3950893.7321428l.1049105-.5066964c-.7049142-.5017372-1.5677486-.796875-2.5-.796875zm7.3839293 0c-1.247315 0-2.369736.5281736-3.1562507 1.3727679v.5714286c.7865147-.8445943 1.9089357-1.3727679 3.1562507-1.3727679 2.278152 0 4.124562 1.7663344 4.279017 3.9977679.00609-.093366.029018-.1818787.029018-.2767857 0-2.3713715-1.928721-4.2924108-4.308035-4.2924108zm-1.412947 3.671875-1.091518 2.4151786.270089-.0245536 1.055804-2.3348214zm-4.0044644.2589287-.1116072.5401785 1.5.4196428.2433037-.5022321zm4.7499994 2.5647321-.328124.029018-1.8348219 3.3549113.1294643.332588zm-3.9084816.0982143-.2566964.5290178 1.46875.2388393.2544643-.53125zm.2254464 3.3973208-.1316963.272322.5513392 1.252233.1450894-.241072z" fill="#fff" opacity=".3"/><path d="m6.703125 2.915179-.5401786 2.5959821.1116072.0312501.5334821-2.5625001c-.0333219-.0237175-.0708916-.041947-.1049107-.0647321zm1.8325893 1.3861607v.5714285l1.7433037.4107143.234375-.5156249zm7.4352677 1.8794643c-.0731 1.1206298-.55823 2.1298501-1.330357 2.8526785l-4.9375 4.6026785-.7120536-1.8125-.1294643.23884.8415179 2.145089 4.9375-4.6026789c.836457-.7830514 1.359375-1.89543 1.359375-3.1294642 0-.1010819-.022125-.195307-.029018-.2946429zm-15.9419642.0044643c-.0066898.097873-.0290178.1906132-.0290178.2901786 0 1.23392.5230778 2.3462985 1.359375 3.1294642l5.6183036 5.3950889.9285715-1.54241-.1450894-.330357-.7834821 1.301338-5.6183036-5.3950885c-.770936-.721957-1.2561577-1.7295057-1.3303572-2.8482142zm7.6339286.3169643-.8035714 1.6607143.2566964.0424107.7901787-1.6339286zm3.3616066 1.0334821-1.566964.1383928-.270089.5959822 1.508929-.1339286zm-2.696428 1.4375-1.1183035 2.3303573.1316963.299107 1.2410715-2.5892857z" opacity=".2"/></g></svg>

<?xml version="1.0" encoding="UTF-8" standalone="no"?>
<svg
   xmlns:dc="http://purl.org/dc/elements/1.1/"
   xmlns:cc="http://creativecommons.org/ns#"
   xmlns:rdf="http://www.w3.org/1999/02/22-rdf-syntax-ns#"
   xmlns:svg="http://www.w3.org/2000/svg"
   xmlns="http://www.w3.org/2000/svg"
   xmlns:sodipodi="http://sodipodi.sourceforge.net/DTD/sodipodi-0.dtd"
   xmlns:inkscape="http://www.inkscape.org/namespaces/inkscape"
   height="16"
   width="16"
   version="1.1"
   id="svg4"
   sodipodi:docname="face-heart-broken.svg"
   inkscape:version="0.92.4 (5da689c313, 2019-01-14)">
  <metadata
     id="metadata10">
    <rdf:RDF>
      <cc:Work
         rdf:about="">
        <dc:format>image/svg+xml</dc:format>
        <dc:type
           rdf:resource="http://purl.org/dc/dcmitype/StillImage" />
      </cc:Work>
    </rdf:RDF>
  </metadata>
  <defs
     id="defs8" />
  <sodipodi:namedview
     pagecolor="#ffffff"
     bordercolor="#666666"
     borderopacity="1"
     objecttolerance="10"
     gridtolerance="10"
     guidetolerance="10"
     inkscape:pageopacity="0"
     inkscape:pageshadow="2"
     inkscape:window-width="1920"
     inkscape:window-height="1016"
     id="namedview6"
     showgrid="false"
     inkscape:zoom="14.75"
     inkscape:cx="-4.8813559"
     inkscape:cy="8"
     inkscape:window-x="0"
     inkscape:window-y="27"
     inkscape:window-maximized="1"
     inkscape:current-layer="svg4" />
  <path
     d="M 11.692229,2.1824126 C 14.071543,2.1824126 16,4.1046983 16,6.4760697 h -4.57e-4 c 0,1.2340343 -0.522857,2.3457257 -1.359314,3.1287772 h 0.0024 L 9.702309,14.20799 8.8607771,12.062047 11.024343,8.1071669 9.18648,8.270024 10.512571,5.3387211 8.5350743,4.8734411 V 3.5555326 C 9.321589,2.7109383 10.444914,2.1824126 11.692229,2.1824126 Z M 6.8078857,2.9793497 C 6.1029714,2.4776126 5.2399429,2.1824126 4.3076914,2.1824126 1.9284571,2.1824126 0,4.1046983 0,6.4760697 0,7.7099897 0.5231429,8.8216811 1.35944,9.6048469 H 1.3583 L 6.9779086,14.999761 7.9069486,13.457933 7.2090171,11.87599 8.5816114,9.0144811 6.8600457,8.735304 7.9069486,6.5717269 6.1621257,6.0831783 Z"
     id="path2"
     style="clip-rule:evenodd;fill:#f22c42;fill-opacity:1;fill-rule:evenodd;stroke-width:1.14285719"
     inkscape:connector-curvature="0" />
  <path
     style="opacity:0.3;fill:#ffffff;fill-opacity:1;stroke-width:1.14285719"
     d="M 4.3080357,2.1830361 C 1.9288014,2.1830361 0,4.1040754 0,6.4754469 c 0,0.096437 0.022727,0.1864042 0.029018,0.28125 0.1522773,-2.233545 1.9994243,-4.0022322 4.2790179,-4.0022322 0.8881832,0 1.7094444,0.2729154 2.3950893,0.7321428 L 6.8080357,2.9799111 c -0.7049142,-0.5017372 -1.5677486,-0.796875 -2.5,-0.796875 z m 7.3839293,0 c -1.247315,0 -2.369736,0.5281736 -3.1562507,1.3727679 V 4.1272326 C 9.322229,3.2826383 10.44465,2.7544647 11.691965,2.7544647 c 2.278152,0 4.124562,1.7663344 4.279017,3.9977679 C 15.977072,6.6588666 16,6.5703539 16,6.4754469 16,4.1040754 14.071279,2.1830361 11.691965,2.1830361 Z M 10.279018,5.8549111 9.1875,8.2700897 9.457589,8.2455361 10.513393,5.9107147 Z m -4.0044644,0.2589287 -0.1116072,0.5401785 1.5,0.4196428 0.2433037,-0.5022321 z m 4.7499994,2.5647321 -0.328124,0.029018 -1.8348219,3.3549113 0.1294643,0.332588 z M 7.1160714,8.7767862 6.859375,9.305804 l 1.46875,0.2388393 0.2544643,-0.53125 z m 0.2254464,3.3973208 -0.1316963,0.272322 0.5513392,1.252233 0.1450894,-0.241072 z"
     id="path829"
     inkscape:connector-curvature="0" />
  <path
     style="opacity:0.2;fill:#000000;fill-opacity:1;stroke-width:1.14285719"
     d="M 6.703125,2.915179 6.1629464,5.5111611 6.2745536,5.5424112 6.8080357,2.9799111 C 6.7747138,2.9561936 6.7371441,2.9379641 6.703125,2.915179 Z M 8.5357143,4.3013397 V 4.8727682 L 10.279018,5.2834825 10.513393,4.7678576 Z M 15.970982,6.180804 c -0.0731,1.1206298 -0.55823,2.1298501 -1.330357,2.8526785 l -4.9375,4.6026785 -0.7120536,-1.8125 -0.1294643,0.23884 0.8415179,2.145089 4.9375,-4.6026789 C 15.477082,8.8218597 16,7.7094811 16,6.4754469 16,6.374365 15.977875,6.2801399 15.970982,6.180804 Z M 0.0290178,6.1852683 C 0.022328,6.2831413 0,6.3758815 0,6.4754469 0,7.7093669 0.5230778,8.8217454 1.359375,9.6049111 L 6.9776786,15 7.9062501,13.45759 7.7611607,13.127233 6.9776786,14.428571 1.359375,9.0334825 C 0.588439,8.3115255 0.1032173,7.3039768 0.0290178,6.1852683 Z M 7.6629464,6.5022326 6.859375,8.1629469 7.1160714,8.2053576 7.9062501,6.571429 Z M 11.024553,7.5357147 9.457589,7.6741075 9.1875,8.2700897 10.696429,8.1361611 Z m -2.696428,1.4375 -1.1183035,2.3303573 0.1316963,0.299107 1.2410715,-2.5892857 z"
     id="path834"
     inkscape:connector-curvature="0" />
</svg>
